public/images/icons/search.svg

<svg width="17px" height="17px" viewBox="0 0 14 14" fill="currentColor" xmlns="http://www.w3.org/2000/svg">
<path d="M10.2596 9.02847H9.61118L9.38138 8.80687C10.3662 7.65786 10.8751 6.09028 10.596 4.42421C10.2103 2.1426 8.30623 0.320595 6.00821 0.0415496C2.53655 -0.385226 -0.385226 2.53655 0.0415496 6.00821C0.320595 8.30623 2.1426 10.2103 4.42421 10.596C6.09028 10.8751 7.65786 10.3662 8.80687 9.38138L9.02847 9.61118V10.2596L12.5165 13.7476C12.853 14.0841 13.4029 14.0841 13.7394 13.7476C14.0759 13.4111 14.0759 12.8612 13.7394 12.5247L10.2596 9.02847ZM5.33521 9.02847C3.29161 9.02847 1.64196 7.37881 1.64196 5.33521C1.64196 3.29161 3.29161 1.64196 5.33521 1.64196C7.37881 1.64196 9.02847 3.29161 9.02847 5.33521C9.02847 7.37881 7.37881 9.02847 5.33521 9.02847Z" fill="currentColor"/>
</svg>

<svg xmlns="http://www.w3.org/2000/svg" width="17" height="17" fill="currentColor" viewBox="0 0 14 14"><path d="M10.26 9.028H9.61l-.23-.221a5.335 5.335 0 0 0 1.215-4.383C10.21 2.143 8.306.321 6.008.042A5.339 5.339 0 0 0 .042 6.008c.279 2.298 2.1 4.202 4.382 4.588a5.335 5.335 0 0 0 4.383-1.215l.221.23v.649l3.489 3.488a.867.867 0 0 0 1.222 0 .867.867 0 0 0 0-1.223l-3.48-3.497Zm-4.925 0a3.688 3.688 0 0 1-3.693-3.693 3.688 3.688 0 0 1 3.693-3.693 3.688 3.688 0 0 1 3.693 3.693 3.688 3.688 0 0 1-3.693 3.693Z"/></svg>
